!!!OTL: "Die Erbfehler" DER BERLINER SELBST SICH LOBT
!!!ARE: Europa, Mitteleuropa, Deutschland, Niederrhein
!!!SCT: Z1354
!!!YEM: Copyright 1995, estate of Helmut Schaffrath.
**kern
*ICvox
*Ivox
*M3/4
*k[f#c#g#]
*A:
{8e
8e
=1
4a
4a
8cc#
8a
=2
2ee}
{8cc#
8a
=3
8b
8cc#
8b
8cc#
8b
8cc#
=4
4a
4r}
{8e
8e
=5
4a
4a
8cc#
8a
=6
2ee}
{8cc#
8a
=7
8b
8cc#
8b
8cc#
8b
8cc#
=8
2a}
{8cc#
8dd
=9
4ee
4ee
8ff#
8ee
=10
8ee
8dd
4dd}
{8ee
8dd
=11
8cc#
8cc#
4cc#
8dd
8cc#
=12
8b
8ee
4ee}
{12dd
12cc#
12b
=13
4a
4a
8cc#
8a
=14
8ff#
8ee
4ee}
{8cc#
8a
=15
8b
8cc#
8b
8cc#
8b
8cc#
=16
2a}
==
!!!AGN: Zech -, Schalks - Lied
!!!ONB: ESAC (Essen Associative Code) Database: ZUCCAL
!!!AMT: simple triple
!!!AIN: vox
!!!EED: Helmut Schaffrath
!!!EEV: 1.0
*-
